src/pos-icons/baguette.svg

<svg height="24" viewBox="0 0 24 24" width="24" xmlns="http://www.w3.org/2000/svg"><path d="m5 22c-1.32 0-1.85-2.36-1.96-3.3a5.56 5.56 0 0 1 .32-2.7 2.5 2.5 0 0 1 1.87-1.62c1.17-.2 2 .5 3.06.74a1.21 1.21 0 0 0 1.56-1.37c-.44-1.72-3.57-1.75-4.85-1.75 0-1.86 2.04-2.1 3.5-1.96a10.8 10.8 0 0 1 2.54.56c.5.17 1.08.6 1.63.56.83-.07 1-.93.64-1.56-.87-1.48-3.34-1.6-4.81-1.6 0-2 1.73-2.38 3.39-2.08a11.58 11.58 0 0 1 2.49.79c.51.22 1.12.64 1.68.45 1.44-.44-.06-1.98-.7-2.35a6.6 6.6 0 0 0 -1.42-.58c-.54-.16-1.2-.1-.71-.73a5.13 5.13 0 0 1 2.73-1.24c1.89-.44 4.5-.52 4.96 1.86a5.3 5.3 0 0 1 -.85 3.58 38.96 38.96 0 0 1 -6.85 8.63 36.6 36.6 0 0 1 -4.6 3.99c-1 .72-2.32 1.68-3.62 1.68z"/></svg>

<?xml version="1.0" encoding="UTF-8"?><!DOCTYPE svg PUBLIC "-//W3C//DTD SVG 1.1//EN" "http://www.w3.org/Graphics/SVG/1.1/DTD/svg11.dtd"><svg xmlns="http://www.w3.org/2000/svg" xmlns:xlink="http://www.w3.org/1999/xlink" version="1.1" id="mdi-baguette" width="24" height="24" viewBox="0 0 24 24"><path d="M5 22C3.68 22 3.15 19.64 3.04 18.7A5.56 5.56 0 0 1 3.36 16A2.5 2.5 0 0 1 5.23 14.38C6.4 14.18 7.23 14.88 8.29 15.12A1.21 1.21 0 0 0 9.85 13.75C9.41 12.03 6.28 12 5 12C5 10.14 7.04 9.9 8.5 10.04A10.8 10.8 0 0 1 11.04 10.6C11.54 10.77 12.12 11.2 12.67 11.16C13.5 11.09 13.67 10.23 13.31 9.6C12.44 8.12 9.97 8 8.5 8C8.5 6 10.23 5.62 11.89 5.92A11.58 11.58 0 0 1 14.38 6.71C14.89 6.93 15.5 7.35 16.06 7.16C17.5 6.72 16 5.18 15.36 4.81A6.6 6.6 0 0 0 13.94 4.23C13.4 4.07 12.74 4.13 13.23 3.5A5.13 5.13 0 0 1 15.96 2.26C17.85 1.82 20.46 1.74 20.92 4.12A5.3 5.3 0 0 1 20.07 7.7A38.96 38.96 0 0 1 13.22 16.33A36.6 36.6 0 0 1 8.62 20.32C7.62 21.04 6.3 22 5 22Z" /></svg>
